packages/Snapp/src/NoRideIcon/index.svg

<?xml version="1.0" encoding="UTF-8"?>
<svg width="24px" height="24px" viewBox="0 0 24 24" version="1.1" xmlns="http://www.w3.org/2000/svg" xmlns:xlink="http://www.w3.org/1999/xlink">
    <title>Icons/24/NoRide</title>
    <g id="Icons/24/NoRide" stroke="none" stroke-width="1" fill="none" fill-rule="evenodd">
        <rect id="Container" fill-opacity="0" fill="#D8D8D8" fill-rule="nonzero" x="0" y="0" width="24" height="24"></rect>
        <path d="M4.31928621,2.92181779 L19.1771511,20.9324742 C19.4251261,21.2330686 19.3824696,21.6777721 19.0818751,21.925747 C19.0813088,21.9262142 19.0807417,21.9266806 19.0801739,21.927146 C18.7775886,22.17518 18.3313697,22.1316751 18.0823923,21.8298656 L15.411,18.5918417 L5.1079353,18.5931784 L5.1079353,19.0937707 C5.1079353,19.9247539 4.41382975,20.5955476 3.55396765,20.5955476 C2.74187567,20.5955476 2.07763443,19.9972162 2.00633631,19.2306971 L2,19.0937707 L2,11.9252891 C2,11.7525847 2.02330951,11.5855121 2.06555801,11.424071 L2.11395763,11.2645073 L4.15483514,5.58779068 C4.20606254,5.44869986 4.27681958,5.3190459 4.36399543,5.20209658 L3.22452738,3.81920919 C2.9765524,3.51861471 3.01920893,3.07391129 3.31980342,2.82593631 L3.3215046,2.82453738 C3.6240899,2.57650334 4.07030884,2.62000821 4.31928621,2.92181779 Z M18.3740755,4.37104703 C19.0089823,4.37104703 19.5545623,4.73361888 19.7951555,5.25836146 L19.8451649,5.38224346 L21.8860424,11.05896 C21.9404312,11.2166466 21.977338,11.3855965 21.992392,11.5531385 L22,11.7197419 L22,18.8882235 C22,19.6622577 21.3887829,20.2973063 20.6184631,20.3807133 L12.1983996,10.3779701 L19.9280431,10.3781545 L18.6123505,6.55362942 C18.4804987,6.1895623 18.1431636,5.92478621 17.7482309,5.87965393 L17.628171,5.87282391 L8.40539961,5.8719701 L7.14239961,4.3709701 L18.3740755,4.37104703 Z M5.62592451,12.5860709 C4.76606241,12.5860709 4.07195686,13.2568646 4.07195686,14.0878478 C4.07195686,14.918831 4.76606241,15.5896246 5.62592451,15.5896246 C6.48578661,15.5896246 7.17989216,14.918831 7.17989216,14.0878478 C7.17989216,13.2568646 6.48578661,12.5860709 5.62592451,12.5860709 Z M18.3740755,12.3805237 C17.5142134,12.3805237 16.8201078,13.0513174 16.8201078,13.8823006 C16.8201078,14.7132838 17.5142134,15.3840774 18.3740755,15.3840774 C19.2339376,15.3840774 19.9280431,14.7132838 19.9280431,13.8823006 C19.9280431,13.0513174 19.2339376,12.3805237 18.3740755,12.3805237 Z M5.485,6.55984168 L5.54149704,6.48189392 C5.49818406,6.5372879 5.46048763,6.59721116 5.42934083,6.66090434 L5.38764947,6.75917664 L4.07195686,10.5837017 L8.803,10.5818417 L5.485,6.55984168 Z" id="Combined-Shape" fill="#404040" fill-rule="nonzero"></path>
    </g>
</svg>

<svg viewBox="0 0 24 24" xmlns="http://www.w3.org/2000/svg" fill="currentColor" focusable="false">
  <path d="M4.32 2.922l14.857 18.01a.706.706 0 01-.097.995.71.71 0 01-.998-.097l-2.671-3.238-10.303.001v.5c0 .832-.694 1.503-1.554 1.503-.812 0-1.476-.599-1.548-1.365L2 19.094v-7.169c0-.172.023-.34.066-.5l.048-.16 2.04-5.677a1.53 1.53 0 01.21-.386L3.224 3.82a.706.706 0 01.096-.993l.002-.001a.71.71 0 01.997.097zM18.373 4.37c.635 0 1.18.363 1.421.887l.05.124 2.041 5.677c.054.158.091.327.106.494l.008.167v7.168c0 .774-.611 1.41-1.382 1.493l-8.42-10.003h7.73l-1.316-3.824a1.046 1.046 0 00-.864-.674l-.12-.007-9.223-.001L7.141 4.37h11.232zM5.626 12.586c-.86 0-1.554.67-1.554 1.502 0 .83.694 1.502 1.554 1.502.86 0 1.554-.671 1.554-1.502s-.694-1.502-1.554-1.502zm12.748-.205c-.86 0-1.554.67-1.554 1.501 0 .831.694 1.502 1.554 1.502.86 0 1.554-.67 1.554-1.502 0-.83-.694-1.501-1.554-1.501zM5.485 6.56l.056-.078a1.014 1.014 0 00-.112.179l-.041.098-1.316 3.825 4.731-.002L5.485 6.56z" fill="none"/>
</svg>
